X: 93
T: Obamas In The White House
B: canberra pickers and fiddlers
B: old time tunes update
B: tunes
M:6/8
L:1/8
R: jig
Q: 3/8=100
K:G
V:1 
|: dd/e/f | g2 g gdB | c2 e edc | BGB gdB | A3 dd/e/f |
gba gdB | c2 G edc | BGg dcF | G3 :|
|: d2 c | BGD dBG | cGE edc | BGG dGG | F3 d2 c |
[1 B2 G dBG | c2 G edc | BGg dcF | G3 :|
[2 B2 b bag | c2 g gfe | dg/a/b c'af | g3 |]
% abcbook-tune_id 67a7d9ec68ed8b8dfc494350
% abcbook-tune_composer_id 
% abcbook-boost 0
% abcbook-difficulty 0
% abcbook-tags old time tunes
% abcbook-tablature 
% abcbook-transpose 2
% abcbook-tuning AEAC#
% abcbook-lastupdated 1739173336659
% abcbook-src-url 
% abcbook-soundfonts 
% abcbook-repeats 1
%%MIDI transpose 2
% Rhythm Jig
% Titles One title
% Transcriptions Only 1 transcription
% Mode major
% Key G
% Time_signature 6/8
% Has_accompaniment_chords No chords

